; generated by PrusaSlicer 2.7.1 on 2024-02-06 at 17:59:08 UTC


;
;

;
;
; 

; external perimeters extrusion width = 0.45mm
; perimeters extrusion width = 0.45mm
; infill extrusion width = 0.45mm
; solid infill extrusion width = 0.45mm
; top infill extrusion width = 0.40mm
; first layer extrusion width = 0.42mm

M73 P0 R38
M73 Q0 S38

; printing object Shape-Box id:0 copy 0
; stop printing object Shape-Box id:0 copy 0

;TYPE:Custom
M862.3 P "MK3S" ; printer model check
M862.1 P0.4 ; nozzle diameter check
G90 ; use absolute coordinates
M83 ; extruder relative mode
M104 S160 ; set extruder temp
M140 S60 ; set bed temp
M190 S60 ; wait for bed temp
M109 S160 ; wait for extruder temp
G28 W ; home all without mesh bed level
G80 ; mesh bed leveling
G1 Y-3.0 F1000.0 ; go outside print area
M104 S215 ; set extruder temp
M109 S215 ; wait for extruder temp
G92 E0.0
G1 X60.0 E9.0 F1000.0 ; intro line
G1 X100.0 E12.5 F1000.0 ; intro line
G92 E0.0
M221 S95
G21 ; set units to millimeters
G90 ; use absolute coordinates
M83 ; use relative distances for extrusion
SMOOTH_BED
M107
;LAYER_CHANGE
;Z:0.2
;HEIGHT:0.2
;BEFORE_LAYER_CHANGE
G92 E0.0
;0.2


G1 Z.2 F720
;AFTER_LAYER_CHANGE
;0.2
G1 E-.8 F2100
G1 X110.139 Y91.083 F10800
G1 Z.2 F720
G1 E.8 F2100
M204 S800
;TYPE:Skirt/Brim
;WIDTH:0.42
G1 F1200
G1 X111.205 Y90.069 E.04613
G1 X112.5 Y89.746 E.04185
G1 X137.5 Y89.746 E.78386
G1 X138.917 Y90.139 E.04611
G1 X139.931 Y91.205 E.04613
G1 X140.254 Y92.5 E.04185
G1 X140.254 Y117.5 E.78386
G1 X139.861 Y118.917 E.04611
G1 X138.795 Y119.931 E.04613
G1 X137.5 Y120.254 E.04185
G1 X112.5 Y120.254 E.78386
G1 X111.083 Y119.861 E.04611
G1 X110.069 Y118.795 E.04613
G1 X109.746 Y117.5 E.04185
G1 X109.746 Y92.5 E.78386
G1 X110.123 Y91.14 E.04425
M204 S1000
G1 X110.497 Y91.252 F10800
M204 S800
G1 F1200
G1 X110.515 Y91.193 E.00193
G1 X111.56 Y90.317 E.04275
G1 X112.5 Y90.123 E.03009
G1 X137.5 Y90.123 E.78386
G1 X138.807 Y90.515 E.04278
G1 X139.683 Y91.56 E.04275
G1 X139.877 Y92.5 E.03009
G1 X139.877 Y117.5 E.78386
G1 X139.485 Y118.807 E.04278
G1 X138.44 Y119.683 E.04275
G1 X137.5 Y119.877 E.03009
G1 X112.5 Y119.877 E.78386
G1 X111.193 Y119.485 E.04278
G1 X110.317 Y118.44 E.04275
G1 X110.123 Y117.5 E.03009
G1 X110.123 Y92.5 E.78386
G1 X110.479 Y91.31 E.03895
M204 S1000
; printing object Shape-Box id:0 copy 0
;WIPE_START
G1 F8640
G1 X110.497 Y91.252 E-.01402
G1 X110.515 Y91.193 E-.01424
G1 X111.56 Y90.317 E-.31486
G1 X112.5 Y90.123 E-.22162
G1 X113.519 Y90.123 E-.23526
;WIPE_END
G1 Z.6 F720
G1 X136.713 Y116.713 F10800
G1 Z.2 F720
G1 E.8 F2100
M204 S800
;TYPE:Perimeter
;WIDTH:0.419999
G1 F1200
G1 X113.287 Y116.713 E.7345
G1 X113.287 Y93.287 E.7345
G1 X136.713 Y93.287 E.7345
G1 X136.713 Y105 E.36725
M73 P0 R37
M73 Q1 S38
G1 X136.713 Y116.653 E.36537
M73 P1 R37
M204 S1000
G1 X137.09 Y117.09 F10800
M204 S800
;TYPE:External perimeter
G1 F1200
G1 X112.91 Y117.09 E.75815
G1 X112.91 Y92.91 E.75815
G1 X137.09 Y92.91 E.75815
G1 X137.09 Y105 E.37907
G1 X137.09 Y117.03 E.37719
M73 Q1 S37
M204 S1000
;WIPE_START
G1 F8640
G1 X137.09 Y117.09 E-.01385
G1 X133.685 Y117.09 E-.78615
;WIPE_END
G1 Z.6 F720
G1 X135.774 Y93.457 F10800
G1 Z.2 F720
G1 E.8 F2100
M204 S800
;TYPE:Solid infill
;WIDTH:0.423181
G1 F1200
G1 X136.374 Y94.056 E.02681
G1 X136.374 Y94.594 E.01701
G1 X135.406 Y93.626 E.04328
G1 X134.868 Y93.626 E.01701
G1 X136.374 Y95.132 E.06734
G1 X136.374 Y95.669 E.01698
G1 X134.331 Y93.626 E.09135
G1 X133.793 Y93.626 E.01701
G1 X136.374 Y96.207 E.11541
G1 X136.374 Y96.745 E.01701
G1 X133.255 Y93.626 E.13947
G1 X132.717 Y93.626 E.01701
G1 X136.374 Y97.283 E.16353
G1 X136.374 Y97.82 E.01698
G1 X132.18 Y93.626 E.18754
G1 X131.642 Y93.626 E.01701
G1 X136.374 Y98.358 E.2116
G1 X136.374 Y98.896 E.01701
G1 X131.104 Y93.626 E.23565
G1 X130.566 Y93.626 E.01701
G1 X136.374 Y99.434 E.25971
G1 X136.374 Y99.972 E.01701
G1 X130.028 Y93.626 E.28377
G1 X129.491 Y93.626 E.01698
G1 X136.374 Y100.509 E.30778
G1 X136.374 Y101.047 E.01701
G1 X128.953 Y93.626 E.33184
G1 X128.415 Y93.626 E.01701
G1 X136.374 Y101.585 E.35589
G1 X136.374 Y102.123 E.01701
G1 X127.877 Y93.626 E.37995
G1 X127.34 Y93.626 E.01698
G1 X136.374 Y102.66 E.40396
G1 X136.374 Y103.198 E.01701
G1 X126.802 Y93.626 E.42802
G1 X126.264 Y93.626 E.01701
G1 X136.374 Y103.736 E.45208
G1 X136.374 Y104.274 E.01701
G1 X125.726 Y93.626 E.47613
G1 X125.189 Y93.626 E.01698
G1 X136.374 Y104.812 E.50017
G1 X136.374 Y105.349 E.01698
G1 X124.651 Y93.626 E.5242
G1 X124.113 Y93.626 E.01701
G1 X136.374 Y105.887 E.54826
G1 X136.374 Y106.425 E.01701
G1 X123.575 Y93.626 E.57232
G1 X123.037 Y93.626 E.01701
G1 X136.374 Y106.963 E.59637
G1 X136.374 Y107.5 E.01698
G1 X122.5 Y93.626 E.62039
G1 X121.962 Y93.626 E.01701
G1 X136.374 Y108.038 E.64444
G1 X136.374 Y108.576 E.01701
G1 X121.424 Y93.626 E.6685
G1 X120.886 Y93.626 E.01701
M73 Q2 S37
G1 X136.374 Y109.114 E.69256
G1 X136.374 Y109.651 E.01698
M73 P2 R37
G1 X120.349 Y93.626 E.71657
G1 X119.811 Y93.626 E.01701
G1 X136.374 Y110.189 E.74063
G1 X136.374 Y110.727 E.01701
G1 X119.273 Y93.626 E.76468
G1 X118.735 Y93.626 E.01701
G1 X136.374 Y111.265 E.78874
G1 X136.374 Y111.803 E.01701
G1 X118.197 Y93.626 E.8128
G1 X117.66 Y93.626 E.01698
G1 X136.374 Y112.34 E.83681
G1 X136.374 Y112.878 E.01701
G1 X117.122 Y93.626 E.86087
G1 X116.584 Y93.626 E.01701
G1 X136.374 Y113.416 E.88493
G1 X136.374 Y113.954 E.01701
G1 X116.046 Y93.626 E.90898
G1 X115.509 Y93.626 E.01698
G1 X136.374 Y114.491 E.93299
G1 X136.374 Y115.029 E.01701
G1 X114.971 Y93.626 E.95705
G1 X114.433 Y93.626 E.01701
G1 X136.374 Y115.567 E.98111
G1 X136.374 Y116.105 E.01701
G1 X113.895 Y93.626 E1.00517
G1 X113.626 Y93.626 E.00851
G1 X113.626 Y93.895 E.00851
G1 X136.105 Y116.374 E1.00517
G1 X135.567 Y116.374 E.01701
G1 X113.626 Y94.433 E.98111
G1 X113.626 Y94.971 E.01701
G1 X135.029 Y116.374 E.95705
G1 X134.491 Y116.374 E.01701
M73 P3 R37
M73 Q3 S37
G1 X113.626 Y95.509 E.93299
G1 X113.626 Y96.046 E.01698
G1 X133.954 Y116.374 E.90898
G1 X133.416 Y116.374 E.01701
G1 X113.626 Y96.584 E.88493
G1 X113.626 Y97.122 E.01701
G1 X132.878 Y116.374 E.86087
G1 X132.34 Y116.374 E.01701
G1 X113.626 Y97.66 E.83681
G1 X113.626 Y98.198 E.01701
G1 X131.802 Y116.374 E.81275
G1 X131.265 Y116.374 E.01698
G1 X113.626 Y98.735 E.78874
G1 X113.626 Y99.273 E.01701
G1 X130.727 Y116.374 E.76468
G1 X130.189 Y116.374 E.01701
G1 X113.626 Y99.811 E.74063
G1 X113.626 Y100.349 E.01701
M73 P3 R36
G1 X129.651 Y116.374 E.71657
G1 X129.114 Y116.374 E.01698
G1 X113.626 Y100.886 E.69256
G1 X113.626 Y101.424 E.01701
G1 X128.576 Y116.374 E.6685
G1 X128.038 Y116.374 E.01701
G1 X113.626 Y101.962 E.64444
G1 X113.626 Y102.5 E.01701
G1 X127.5 Y116.374 E.62039
G1 X126.963 Y116.374 E.01698
G1 X113.626 Y103.037 E.59637
M73 Q3 S36
G1 X113.626 Y103.575 E.01701
G1 X126.425 Y116.374 E.57232
G1 X125.887 Y116.374 E.01701
G1 X113.626 Y104.113 E.54826
G1 X113.626 Y104.651 E.01701
G1 X125.349 Y116.374 E.5242
G1 X124.811 Y116.374 E.01701
G1 X113.626 Y105.189 E.50015
G1 X113.626 Y105.726 E.01698
M73 P4 R36
M73 Q4 S36
G1 X124.274 Y116.374 E.47613
G1 X123.736 Y116.374 E.01701
G1 X113.626 Y106.264 E.45208
G1 X113.626 Y106.802 E.01701
G1 X123.198 Y116.374 E.42802
G1 X122.66 Y116.374 E.01701
G1 X113.626 Y107.34 E.40396
G1 X113.626 Y107.877 E.01698
G1 X122.123 Y116.374 E.37995
G1 X121.585 Y116.374 E.01701
G1 X113.626 Y108.415 E.35589
G1 X113.626 Y108.953 E.01701
G1 X121.047 Y116.374 E.33184
G1 X120.509 Y116.374 E.01701
G1 X113.626 Y109.491 E.30778
G1 X113.626 Y110.028 E.01698
G1 X119.972 Y116.374 E.28377
G1 X119.434 Y116.374 E.01701
G1 X113.626 Y110.566 E.25971
G1 X113.626 Y111.104 E.01701
G1 X118.896 Y116.374 E.23565
G1 X118.358 Y116.374 E.01701
G1 X113.626 Y111.642 E.2116
G1 X113.626 Y112.18 E.01701
G1 X117.82 Y116.374 E.18754
G1 X117.283 Y116.374 E.01698
G1 X113.626 Y112.717 E.16353
G1 X113.626 Y113.255 E.01701
G1 X116.745 Y116.374 E.13947
G1 X116.207 Y116.374 E.01701
G1 X113.626 Y113.793 E.11541
G1 X113.626 Y114.331 E.01701
G1 X115.669 Y116.374 E.09135
G1 X115.132 Y116.374 E.01698
G1 X113.626 Y114.868 E.06734
G1 X113.626 Y115.406 E.01701
G1 X114.594 Y116.374 E.04328
G1 X114.056 Y116.374 E.01701
G1 X113.457 Y115.774 E.02681
M204 S1000
; stop printing object Shape-Box id:0 copy 0
M106 S84.15
;LAYER_CHANGE
;Z:0.4
;HEIGHT:0.2
;BEFORE_LAYER_CHANGE
G92 E0.0
;0.4


G1 Z.4 F720
;AFTER_LAYER_CHANGE
;0.4
M104 S210 ; set temperature
G1 E-.8 F2100
G1 X113.457 Y115.774 Z.8 F10823.973
G1 X109.746 Y115.774 F10800
G1 Z.4 F720
G1 E.8 F2100
;TYPE:Skirt/Brim
;WIDTH:0.42
G1 F3000
G1 X109.746 Y92.5 E.72974
G1 X110.139 Y91.083 E.04611
G1 X111.205 Y90.069 E.04613
G1 X112.5 Y89.746 E.04185
G1 X137.5 Y89.746 E.78386
G1 X138.917 Y90.139 E.04611
G1 X139.931 Y91.205 E.04613
G1 X140.254 Y92.5 E.04185
G1 X140.254 Y117.5 E.78386
G1 X139.861 Y118.917 E.04611
G1 X138.795 Y119.931 E.04613
G1 X137.5 Y120.254 E.04185
G1 X112.5 Y120.254 E.78386
G1 X111.083 Y119.861 E.04611
G1 X110.069 Y118.795 E.04613
G1 X109.746 Y117.5 E.04185
G1 X109.746 Y115.834 E.05224
G1 X110.123 Y115.834 F10800
G1 F3000
G1 X110.123 Y92.5 E.73162
G1 X110.515 Y91.193 E.04278
G1 X111.56 Y90.317 E.04275
G1 X112.5 Y90.123 E.03009
G1 X137.5 Y90.123 E.78386
G1 X138.807 Y90.515 E.04278
G1 X139.683 Y91.56 E.04275
G1 X139.877 Y92.5 E.03009
G1 X139.877 Y117.5 E.78386
G1 X139.485 Y118.807 E.04278
G1 X138.44 Y119.683 E.04275
G1 X137.5 Y119.877 E.03009
G1 X112.5 Y119.877 E.78386
G1 X111.193 Y119.485 E.04278
G1 X110.317 Y118.44 E.04275
G1 X110.123 Y117.5 E.03009
G1 X110.123 Y115.894 E.05036
; printing object Shape-Box id:0 copy 0
;WIPE_START
G1 F8640
G1 X110.123 Y115.834 E-.01385
G1 X110.123 Y112.429 E-.78615
;WIPE_END
G1 Z.8 F720
G1 X136.868 Y116.868 F10800
G1 Z.4 F720
G1 E.8 F2100
M204 S800
;TYPE:Perimeter
;WIDTH:0.449999
G1 F2376.858
G1 X113.132 Y116.868 E.80343
G1 X113.132 Y93.132 E.80343
G1 X136.868 Y93.132 E.80343
G1 X136.868 Y105 E.40172
G1 X136.868 Y116.808 E.39969
M204 S1000
G1 X137.275 Y117.275 F10800
M204 S800
;TYPE:External perimeter
G1 F1500
G1 X112.725 Y117.275 E.83099
G1 X112.725 Y92.725 E.83099
G1 X137.275 Y92.725 E.83099
G1 X137.275 Y105 E.41549
G1 X137.275 Y117.215 E.41346
M204 S1000
;WIPE_START
G1 F8640
G1 X137.275 Y117.275 E-.01385
G1 X133.87 Y117.275 E-.78615
;WIPE_END
G1 Z.8 F720
G1 X113.609 Y93.531 F10800
G1 Z.4 F720
G1 E.8 F2100
;TYPE:Solid infill
;WIDTH:0.548766
G1 F4800
G1 X113.564 Y93.487 E.00265
G1 X113.503 Y93.503 E.00265
G1 X113.487 Y93.564 E.00265
G1 X113.531 Y93.609 E.00265
G1 X113.593 Y93.593 E.00269
G1 X113.366 Y94.388 F10800
;WIDTH:0.38292
G1 F4800
G1 X113.295 Y94.369 E.00208
G1 X113.314 Y94.44 E.00208
G1 X113.355 Y94.429 E.0012
;WIDTH:0.41646
G1 X113.427 Y94.336 E.00365
;WIDTH:0.449999
G1 X113.498 Y94.243 E.00396
G1 X114.243 Y93.498 E.03566
G1 X114.336 Y93.427 E.00396
;WIDTH:0.41646
G1 X114.429 Y93.355 E.00365
;WIDTH:0.38292
G1 X114.388 Y93.366 E.0012
G1 X114.369 Y93.295 E.00208
G1 X114.44 Y93.314 E.00208
;WIDTH:0.449999
G1 X114.818 Y93.498 E.01423
G1 X113.498 Y94.818 E.06319
G1 X113.498 Y95.394 E.0195
G1 X115.394 Y93.498 E.09076
G1 X115.97 Y93.498 E.0195
G1 X113.498 Y95.97 E.11833
G1 X113.498 Y96.546 E.0195
G1 X116.546 Y93.498 E.14591
G1 X117.121 Y93.498 E.01946
M73 Q5 S36
G1 X113.498 Y97.121 E.17343
G1 X113.498 Y97.697 E.0195
M73 P5 R36
G1 X117.697 Y93.498 E.201
G1 X118.273 Y93.498 E.0195
G1 X113.498 Y98.273 E.22858
G1 X113.498 Y98.848 E.01946
G1 X118.848 Y93.498 E.2561
G1 X119.424 Y93.498 E.0195
G1 X113.498 Y99.424 E.28367
G1 X113.498 Y100 E.0195
G1 X120 Y93.498 E.31125
G1 X120.575 Y93.498 E.01946
G1 X113.498 Y100.575 E.33877
G1 X113.498 Y101.151 E.0195
G1 X121.151 Y93.498 E.36634
G1 X121.727 Y93.498 E.0195
G1 X113.498 Y101.727 E.39392
G1 X113.498 Y102.303 E.0195
G1 X122.303 Y93.498 E.42149
G1 X122.878 Y93.498 E.01946
G1 X113.498 Y102.878 E.44901
G1 X113.498 Y103.454 E.0195
G1 X123.454 Y93.498 E.47659
G1 X124.03 Y93.498 E.0195
G1 X113.498 Y104.03 E.50416
G1 X113.498 Y104.605 E.01946
G1 X124.605 Y93.498 E.53169
G1 X125.181 Y93.498 E.0195
G1 X113.498 Y105.181 E.55926
G1 X113.498 Y105.757 E.0195
G1 X125.757 Y93.498 E.58683
G1 X126.332 Y93.498 E.01946
G1 X113.498 Y106.332 E.61436
G1 X113.498 Y106.908 E.0195
G1 X126.908 Y93.498 E.64193
G1 X127.484 Y93.498 E.0195
G1 X113.498 Y107.484 E.6695
G1 X113.498 Y108.059 E.01946
G1 X128.059 Y93.498 E.69703
G1 X128.635 Y93.498 E.0195
G1 X113.498 Y108.635 E.7246
G1 X113.498 Y109.211 E.0195
G1 X129.211 Y93.498 E.75217
G1 X129.787 Y93.498 E.0195
G1 X113.498 Y109.787 E.77974
G1 X113.498 Y110.362 E.01946
G1 X130.362 Y93.498 E.80727
G1 X130.938 Y93.498 E.0195
G1 X113.498 Y110.938 E.83484
G1 X113.498 Y111.514 E.0195
G1 X131.514 Y93.498 E.86241
G1 X132.089 Y93.498 E.01946
G1 X113.498 Y112.089 E.88994
G1 X113.498 Y112.665 E.0195
G1 X132.665 Y93.498 E.91751
G1 X133.241 Y93.498 E.0195
G1 X113.498 Y113.241 E.94509
G1 X113.498 Y113.816 E.01946
G1 X133.816 Y93.498 E.97261
G1 X134.392 Y93.498 E.0195
G1 X113.498 Y114.392 E1.00018
G1 X113.498 Y114.968 E.0195
G1 X134.968 Y93.498 E1.02776
G1 X135.544 Y93.498 E.0195
G1 X113.498 Y115.544 E1.05533
G1 X113.498 Y116.119 E.01946
G1 X136.119 Y93.498 E1.08285
G1 X136.638 Y93.392 E.01793
;WIDTH:0.38292
G1 X136.567 Y93.373 E.00208
G1 X136.586 Y93.444 E.00208
G1 X136.627 Y93.433 E.0012
;WIDTH:0.41646
G1 X136.564 Y93.562 E.00446
;WIDTH:0.449999
G1 X136.502 Y93.692 E.00488
G1 X113.692 Y116.502 E1.0919
G1 X113.562 Y116.564 E.00488
;WIDTH:0.41646
G1 X113.433 Y116.627 E.00446
;WIDTH:0.38292
G1 X113.392 Y116.638 E.0012
G1 X113.373 Y116.567 E.00208
G1 X113.444 Y116.586 E.00208
G1 X114.268 Y116.502 F10800
;WIDTH:0.449999
G1 F4800
G1 X136.502 Y94.268 E1.06433
G1 X136.502 Y94.843 E.01946
G1 X114.843 Y116.502 E1.0368
G1 X115.419 Y116.502 E.0195
G1 X136.502 Y95.419 E1.00923
G1 X136.502 Y95.995 E.0195
G1 X115.995 Y116.502 E.98166
G1 X116.57 Y116.502 E.01946
G1 X136.502 Y96.57 E.95413
G1 X136.502 Y97.146 E.0195
G1 X117.146 Y116.502 E.92656
G1 X117.722 Y116.502 E.0195
G1 X136.502 Y97.722 E.89899
G1 X136.502 Y98.297 E.01946
G1 X118.297 Y116.502 E.87146
G1 X118.873 Y116.502 E.0195
G1 X136.502 Y98.873 E.84389
G1 X136.502 Y99.449 E.0195
G1 X119.449 Y116.502 E.81632
G1 X120.024 Y116.502 E.01946
G1 X136.502 Y100.025 E.78877
G1 X136.502 Y100.6 E.01946
G1 X120.6 Y116.502 E.76122
G1 X121.176 Y116.502 E.0195
G1 X136.502 Y101.176 E.73365
G1 X136.502 Y101.752 E.0195
G1 X121.752 Y116.502 E.70607
G1 X122.327 Y116.502 E.01946
G1 X136.502 Y102.327 E.67855
G1 X136.502 Y102.903 E.0195
G1 X122.903 Y116.502 E.65098
G1 X123.479 Y116.502 E.0195
G1 X136.502 Y103.479 E.6234
G1 X136.502 Y104.054 E.01946
G1 X124.054 Y116.502 E.59588
G1 X124.63 Y116.502 E.0195
G1 X136.502 Y104.63 E.56831
G1 X136.502 Y105.206 E.0195
G1 X125.206 Y116.502 E.54073
G1 X125.781 Y116.502 E.01946
G1 X136.502 Y105.781 E.51321
G1 X136.502 Y106.357 E.0195
G1 X126.357 Y116.502 E.48563
G1 X126.933 Y116.502 E.0195
G1 X136.502 Y106.933 E.45806
G1 X136.502 Y107.509 E.0195
G1 X127.509 Y116.502 E.43049
G1 X128.084 Y116.502 E.01946
G1 X136.502 Y108.084 E.40296
G1 X136.502 Y108.66 E.0195
G1 X128.66 Y116.502 E.37539
G1 X129.236 Y116.502 E.0195
G1 X136.502 Y109.236 E.34782
G1 X136.502 Y109.811 E.01946
G1 X129.811 Y116.502 E.32029
G1 X130.387 Y116.502 E.0195
G1 X136.502 Y110.387 E.29272
G1 X136.502 Y110.963 E.0195
G1 X130.963 Y116.502 E.26515
G1 X131.538 Y116.502 E.01946
G1 X136.502 Y111.538 E.23762
G1 X136.502 Y112.114 E.0195
G1 X132.114 Y116.502 E.21005
G1 X132.69 Y116.502 E.0195
G1 X136.502 Y112.69 E.18248
G1 X136.502 Y113.266 E.0195
G1 X133.266 Y116.502 E.15491
G1 X133.841 Y116.502 E.01946
G1 X136.502 Y113.841 E.12738
G1 X136.502 Y114.417 E.0195
G1 X134.417 Y116.502 E.09981
G1 X134.993 Y116.502 E.0195
G1 X136.502 Y114.993 E.07223
G1 X136.502 Y115.568 E.01946
G1 X135.568 Y116.502 E.04471
G1 X136.029 Y116.664 E.01654
;WIDTH:0.38292
G1 X135.958 Y116.645 E.00208
M73 Q6 S36
G1 X135.977 Y116.716 E.00208
G1 X136.018 Y116.705 E.0012
;WIDTH:0.41646
G1 X136.081 Y116.603 E.00372
;WIDTH:0.449999
G1 X136.144 Y116.502 E.00403
G1 X136.502 Y116.144 E.01714
G1 X136.603 Y116.081 E.00403
;WIDTH:0.41646
G1 X136.705 Y116.018 E.00372
;WIDTH:0.38292
G1 X136.664 Y116.029 E.0012
G1 X136.645 Y115.958 E.00208
G1 X136.716 Y115.977 E.00208
